X:1
T: Move up to me
C:
R:Jig
Q:180
K:G
M:6/8
L:1/16
dc|B4d2 d2B2d2|e2c2e2 d2B2G2|B2c2d2 d2e2=f2|A2F2A2 A2B2c2|B4d2 d2B2d2|e2c2e2 d2B2G2|B2d2B2 c2A2F2|G2A2G2 G4dc|
B4d2 d2B2d2|e2c2e2 d2B2G2|B2c2d2 d2e2=f2|A2F2A2 A2B2c2|B4d2 d2B2d2|e2c2e2 d2B2G2|B2d2B2 c2A2F2|G2A2G2 G4d2|
g2e2g2 f2d2f2|e2c2e2 d2B2G2|g2e2g2 f2d2f2|e2c2e2 d4d2|g2e2g2 f2d2f2|e2c2e2 d2B2G2|B2d2B2 c2A2F2|G2A2G2 G4d2|
g2e2g2 f2d2f2|e2c2e2 d2B2G2|g2e2g2 f2d2f2|e2c2e2 d4d2|g2e2g2 f2d2f2|e2c2e2 d2B2G2|B2d2B2 c2A2F2|G2A2G2 G4||
